X:1
T:Risen! Hallelujah!
T:Risen! Hallelujah!
T:Charles Hutchinson Gabriel, Jr.
T:Lizzie DeArmond, 1910
T:Public Domain Courtesy of the Cyber Hymnal™
T:Public Domain Courtesy of the Cyber Hymnal™
C:Charles Hutchinson Gabriel, Jr.
Z:Public Domain
Z:Courtesy of the Cyber Hymnal™
%%score ( 1 2 ) ( 3 4 )
L:1/8
Q:1/4=108
M:4/4
K:Ab
V:1 treble 
V:2 treble 
V:3 bass 
V:4 bass 
V:1
 [Ec]2 [Ec]2 [CB]2 [CA]2 | (GB) (AF) [CE]2 [DF][DG] | [CA]2 [DG]2 [EA]2 [Ec]2 | e4 [GB]4 | %4
w: 1.~Ris- en is our|glor- * ious * king, Hal- le-|lu- jah! hal- le-|lu- jah!|
w: 2.~Swell the strains of|vic- * to- * ry, Hal- le-|lu- jah! hal- le-|lu- jah!|
w: 3.~Ris- en is our|glor- * ious * king, Hal- le-|lu- jah! hal- le-|lu- jah!|
 [Ed]2 [Ed]2 [Ec]2 [EB]2 | (=Ac) (BG) E2 [GB][Ge] | [A=d]4 [GB]2 [FA][EG] | [=DF]4 E2 z2 | %8
w: Shout till all the|earth * shall * ring— Hal- le-|lu- jah! hal- le-|lu- jah!|
w: Life e- ter- nal|we * shall * see, Hal- le-|lu- jah! hal- le-|lu- jah!|
w: From the tomb glad|hope * to * spring, Hal- le-|lu- jah! hal- le-|lu- jah!|
"^Girls & Women, Unison" (EF) ([EG][FA]) ([GB][Ac]) [Bd]2 | [Ec]2 [EA]2 e4 | %10
w: Peal- * ing * thro’ * the|aisles of time,|
w: Fill * with * prais- * es|ev- ery way,|
w: Shout * a- * loud, * O|star- ry train,|
"^Boys & Men, Unison" (EF) ([EG][FA]) ([GB][Ac]) [Bd]2 | [Ec]2 [EA]2 [Ge]4 | %12
w: Hear * the * East- * er|chant sub- lime,|
w: Hail * this * re- * sur-|rect- ion day,|
w: Lives * the * Lord * who|once was slain;|
"^Full Harmony" [Ee]2 [^Fe]2 (eB) ([EG][GB]) | [^F=d]2 [Fc]2 [GB]2 [EG][EG] | %14
w: Sound- ing forth * in *|joy- ful chime— Hal- le-|
w: Crown the Christ * who *|lives for aye, Hal- le-|
w: Now tri- umph- * ant *|He shall reign, Hal- le-|
 [=DB]4 [DA]2 [DG][DF] | E4 [Ed]4 ||"^Refrain" [Ec]2 [DB]2 [CA]2 [CE]2 | [Ee]2 (dc) [EB]4 | %18
w: lu- jah! hal- le-|lu- jah!|||
w: lu- jah! hal- le-|lu- jah!|Ris- en! ris- en|ev- er- * more!|
w: lu- jah! hal- le-|lu- jah!|||
 [Ed]2 [Ec]2 [EB]2 E2 | (ed) ([Ec][DB]) [CA]4 | [CA]2 [CA]2 [DA]2 [_GA]2 | %21
w: |||
w: Shout the news from|shore * to * shore!|Christ the Might- y|
w: |||
 [FA]2 [_GA]2 [FA]2 [Af][Af] | [Ae]4 [Ec]2 (3([CA][DB])[Ec] | [DB]4 [CA]4 |] %24
w: |||
w: One a- dore, Hal- le-|lu- jah! hal- * le-|lu- jah!|
w: |||
V:2
 x8 | C2 C2 x4 | x8 | (G2 A2) x4 | x8 | E2 E2 E2 x2 | x8 | x4 E2 x2 | x8 | x4 (GABA) | x8 | x8 | %12
 x4 G2 x2 | x8 | x8 | E4 x4 || x8 | x2 E2 x4 | x6 E2 | E2 x6 | x8 | x8 | x8 | x8 |] %24
V:3
 [A,,A,]2 [A,,E,]2 [A,,A,]2 [A,,E,]2 | [A,,A,]2 [A,,E,]2 [A,,A,]2 [A,,A,][A,,A,] | %2
 [A,,E,]2 [B,,E,]2 [C,A,]2 [A,,A,]2 | (B,2 C2) [E,D]4 | [E,B,]2 [E,B,]2 [E,G,]2 [E,G,]2 | %5
 [E,^F,]2 (G,B,) [E,G,]2 [E,E][E,B,] | [F,B,]4 B,2 [B,,B,][B,,B,] | [B,,A,]4 [E,G,]2 z2 | %8
 E,2 [G,B,E]2 E,2 [G,B,E]2 | [A,,A,]2 [E,A,C]2 (E,F,G,F,) | E,2 [G,B,E]2 E,2 [G,B,E]2 | %11
 [A,,A,]2 [E,A,C]2 B,4 | [C,A,]2 [_C,=A,]2 [B,,B,]2 [B,,B,]2 | %13
 [=A,,C]2 [A,,E]2 [B,,E]2 [B,,B,][B,,B,] | [B,,F,]4 [B,,C]2 [B,,B,][B,,A,] | [E,G,]4 [E,B,]4 || %16
 [A,,A,]2 [A,,E,]2 [A,,A,]2 [A,,A,]2 | [C,A,]2 ([B,,G,][A,,A,]) [E,G,]4 | %18
 [E,B,]2 [E,A,]2 [E,G,]2 [E,G,]2 | (CB,) (A,G,) [A,,A,]4 | [F,A,]2 [_G,A,]2 [F,A,]2 [E,C]2 | %21
 [D,D]2 [C,E]2 [D,D]2 [=D,=B,][D,B,] | [E,C]4 [E,A,]2 (3:2:2[E,A,]2 [E,A,] | [E,G,]4 [A,,A,]4 |] %24
V:4
 x8 | x8 | x8 | E,4 x4 | x8 | x2 E,2 x4 | x4 B,2 x2 | x8 | x8 | x8 | x8 | x4 (E,F,E,D,) | x8 | x8 | %14
 x8 | x8 || x8 | x8 | x8 | E,2 E,2 x4 | x8 | x8 | x8 | x8 |] %24

